icons/op-copy-to-project-16.svg

<svg width="16" height="16" viewBox="0 0 16 16" fill="none" xmlns="http://www.w3.org/2000/svg">
<path fill-rule="evenodd" clip-rule="evenodd" d="M0 6.75C0 5.7835 0.783502 5 1.75 5H3.25C3.66421 5 4 5.33579 4 5.75C4 6.16421 3.66421 6.5 3.25 6.5H1.75C1.61193 6.5 1.5 6.61193 1.5 6.75V14.25C1.5 14.3881 1.61193 14.5 1.75 14.5H9.25C9.38807 14.5 9.5 14.3881 9.5 14.25V12.75C9.5 12.3358 9.83579 12 10.25 12C10.6642 12 11 12.3358 11 12.75V14.25C11 15.2165 10.2165 16 9.25 16H1.75C0.783502 16 0 15.2165 0 14.25V6.75Z" fill="#24292F"/>
<path fill-rule="evenodd" clip-rule="evenodd" d="M5 1.75C5 0.783502 5.7835 0 6.75 0H14.25C15.2165 0 16 0.783502 16 1.75V9.25C16 10.2165 15.2165 11 14.25 11H6.75C5.7835 11 5 10.2165 5 9.25V1.75ZM6.75 1.5C6.61193 1.5 6.5 1.61193 6.5 1.75V9.25C6.5 9.38807 6.61193 9.5 6.75 9.5H14.25C14.3881 9.5 14.5 9.38807 14.5 9.25V1.75C14.5 1.61193 14.3881 1.5 14.25 1.5H6.75Z" fill="#24292F"/>
<path d="M12 3.25C12 2.83579 12.3358 2.5 12.75 2.5C13.1642 2.5 13.5 2.83579 13.5 3.25V7.25C13.5 7.6642 13.1642 8 12.75 8C12.3358 8 12 7.6642 12 7.25V3.25Z" fill="#24292F"/>
<path d="M8.25 2.5C7.83579 2.5 7.5 2.83579 7.5 3.25V5.75C7.5 6.16421 7.83579 6.5 8.25 6.5C8.66421 6.5 9 6.16421 9 5.75V3.25C9 2.83579 8.66421 2.5 8.25 2.5Z" fill="#24292F"/>
<path d="M9.75 3.25C9.75 2.83579 10.0858 2.5 10.5 2.5C10.9142 2.5 11.25 2.83579 11.25 3.25V4.75C11.25 5.16421 10.9142 5.5 10.5 5.5C10.0858 5.5 9.75 5.16421 9.75 4.75V3.25Z" fill="#24292F"/>
</svg>

<svg xmlns="http://www.w3.org/2000/svg" width="16" height="16" viewBox="0 0 16 16"><path d="M0 6.75C0 5.784.784 5 1.75 5h1.5a.75.75 0 0 1 0 1.5h-1.5a.25.25 0 0 0-.25.25v7.5c0 .138.112.25.25.25h7.5a.25.25 0 0 0 .25-.25v-1.5a.75.75 0 0 1 1.5 0v1.5A1.75 1.75 0 0 1 9.25 16h-7.5A1.75 1.75 0 0 1 0 14.25Z"/><path d="M5 1.75C5 .784 5.784 0 6.75 0h7.5C15.217 0 16 .784 16 1.75v7.5A1.75 1.75 0 0 1 14.25 11h-7.5A1.75 1.75 0 0 1 5 9.25Zm1.75-.25a.25.25 0 0 0-.25.25v7.5c0 .138.112.25.25.25h7.5a.25.25 0 0 0 .25-.25v-7.5a.25.25 0 0 0-.25-.25Z"/><path d="M12 3.25a.75.75 0 0 1 1.5 0v4a.75.75 0 0 1-1.5 0v-4ZM8.25 2.5a.75.75 0 0 0-.75.75v2.5a.75.75 0 0 0 1.5 0v-2.5a.75.75 0 0 0-.75-.75Zm1.5.75a.75.75 0 0 1 1.5 0v1.5a.75.75 0 0 1-1.5 0v-1.5Z"/></svg>
